X: 8045
T: Connie The Soldier
R: jig
M: 6/8
K: Dmajor
A3 AGA|=cBc E2D|EFG EFG|ABA GED|
EAA AGA|=cBc E2g|fed cAG|1 FDC DFG:|2 FDC D2e||
|:f2A ede|fdd d2e|fgf fed|^cAG A3|
efg efg|age d2c|ABA EFG|FDC DFG:|

